X: 628
T:Dillon's Fancy
T:Dillon Brown
M:4/4
L:1/8
Q:180
S:from Mike Rafferty
R:Reel
N:Posted to the woodenflute mailing list February 2003
Z:Tom  Madden
K:G
DGBG dGBG | Bdgd egdc | B2GB dGBG | AcBG AGEG |
DGBG dGBG | Bdgd egdc | (3Bcd ef ~g3d | (3Bcd gd BG~G2 :||
gdBd edBd | gzag fgaf | gdBd ecAG | FGAB cdef |
"or ~g3"gzga gdBd | g2af gfed | (3Bcd ef ~g3d | (3Bcd gd BG~G2 :||
<end>
<start>
